X:1385
T:Berry Dhone (Brown Berry)
M:3/4
L:1/8
K:D
dc|d2A2dc|d2A2dc|d2A2GF|E2D2ef|g2f2e2|d2c2d2|e6|e4cd|
e2a2ga|f2e2 dc|d2A2GF|E4FG|A2 GF ED|E2d2c2|d6|d4||
